icons/svg/seamark_small/restricted_area_water_skiing.svg

<?xml version="1.0" encoding="UTF-8" standalone="no"?>
<!-- Created with Inkscape (http://www.inkscape.org/) -->

<svg
   xmlns:dc="http://purl.org/dc/elements/1.1/"
   xmlns:cc="http://creativecommons.org/ns#"
   xmlns:rdf="http://www.w3.org/1999/02/22-rdf-syntax-ns#"
   xmlns:svg="http://www.w3.org/2000/svg"
   xmlns="http://www.w3.org/2000/svg"
   xmlns:sodipodi="http://sodipodi.sourceforge.net/DTD/sodipodi-0.dtd"
   xmlns:inkscape="http://www.inkscape.org/namespaces/inkscape"
   version="1.0"
   width="580"
   height="580"
   id="svg2"
   sodipodi:version="0.32"
   inkscape:version="0.48.4 r9939"
   sodipodi:docname="restricted_area_fish_sanctuary.svg"
   inkscape:output_extension="org.inkscape.output.svg.inkscape">
  <metadata
     id="metadata2975">
    <rdf:RDF>
      <cc:Work
         rdf:about="">
        <dc:format>image/svg+xml</dc:format>
        <dc:type
           rdf:resource="http://purl.org/dc/dcmitype/StillImage" />
        <cc:license
           rdf:resource="http://web.resource.org/cc/PublicDomain" />
        <dc:language>en</dc:language>
        <dc:title></dc:title>
      </cc:Work>
    </rdf:RDF>
  </metadata>
  <sodipodi:namedview
     inkscape:window-height="1004"
     inkscape:window-width="1920"
     inkscape:pageshadow="2"
     inkscape:pageopacity="0.0"
     guidetolerance="10.0"
     gridtolerance="10.0"
     objecttolerance="10.0"
     borderopacity="1.0"
     bordercolor="#666666"
     pagecolor="#ffffff"
     id="base"
     inkscape:zoom="0.92167712"
     inkscape:cx="420.79484"
     inkscape:cy="294.69478"
     inkscape:window-x="1680"
     inkscape:window-y="0"
     inkscape:current-layer="svg2"
     showgrid="false"
     inkscape:window-maximized="1" />
  <defs
     id="defs4">
    <inkscape:perspective
       sodipodi:type="inkscape:persp3d"
       inkscape:vp_x="0 : 290 : 1"
       inkscape:vp_y="0 : 1000 : 0"
       inkscape:vp_z="580 : 290 : 1"
       inkscape:persp3d-origin="290 : 193.33333 : 1"
       id="perspective10" />
  </defs>
  <path
     sodipodi:type="inkscape:offset"
     inkscape:radius="59.052654"
     inkscape:original="M 461.875 56.15625 C 435.97022 56.15625 414.96875 77.157716 414.96875 103.0625 C 414.96875 128.96728 435.97022 149.96875 461.875 149.96875 C 487.77978 149.96875 508.78125 128.96728 508.78125 103.0625 C 508.78125 77.157716 487.77978 56.15625 461.875 56.15625 z M 437.78125 162.1875 A 32.599984 32.599984 0 0 0 427.40625 163.625 L 270.3125 194.71875 C 270.3125 194.71875 261.8345 199.01894 255.96875 204.90625 L 71.3125 204.125 L 71.21875 226.8125 L 254.40625 227.5625 C 255.15763 228.61943 255.99725 229.63638 256.9375 230.53125 C 261.12304 234.51479 272.78125 236.1875 272.78125 236.1875 L 396.1875 211.75 L 361.375 309.21875 L 261.9375 351.78125 C 259.53783 352.76166 257.29309 354.11698 255.28125 355.75 C 250.90264 358.06454 247.16033 361.56819 244.65625 365.84375 L 185.53125 461.8125 C 182.52261 466.53046 181.08552 472.23065 181.40625 477.8125 L 121.78125 470.0625 C 121.78125 470.0625 116.10869 469.32469 110.09375 464.21875 C 104.07882 459.11279 97.58645 450.2775 99.1875 428.59375 L 76.625 426.90625 C 74.613078 454.15428 84.341111 472.08052 95.4375 481.5 C 106.53388 490.91948 118.90625 492.53125 118.90625 492.53125 L 118.90625 492.46875 L 359.65625 523.84375 L 362.59375 501.375 L 234.15625 484.6875 L 286.75 399.3125 L 401.0625 353.78125 A 32.599984 32.599984 0 0 0 422.125 333.03125 L 467.4375 206.1875 A 32.599984 32.599984 0 0 0 441.03125 162.4375 A 32.599984 32.599984 0 0 0 437.78125 162.1875 z "
     style="font-size:medium;font-style:normal;font-variant:normal;font-weight:normal;font-stretch:normal;text-indent:0;text-align:start;text-decoration:none;line-height:normal;letter-spacing:normal;word-spacing:normal;text-transform:none;direction:ltr;block-progression:tb;writing-mode:lr-tb;text-anchor:start;opacity:0.42608696;color:#000000;fill:#acd8f3;fill-opacity:1;fill-rule:nonzero;stroke:#a35151;stroke-width:0;stroke-linecap:round;stroke-linejoin:miter;stroke-miterlimit:4;stroke-opacity:1;stroke-dasharray:none;stroke-dashoffset:0;marker:none;visibility:visible;display:inline;overflow:visible;enable-background:accumulate;font-family:Bitstream Vera Sans;-inkscape-font-specification:Bitstream Vera Sans"
     id="path4229"
     d="m 461.875,-2.90625 c -57.82147,0 -105.96875,48.147273 -105.96875,105.96875 0,4.84772 0.47094,9.59233 1.125,14.28125 l -98.1875,19.4375 a 59.05856,59.05856 0 0 0 -15.25,5.28125 c 0,0 -2.91277,1.25274 -7.125,3.6875 L 71.5625,145.0625 A 59.05856,59.05856 0 0 0 12.25,203.875 l -0.09375,22.6875 a 59.05856,59.05856 0 0 0 58.8125,59.3125 l 162.65625,0.65625 c 7.93368,4.24806 13.10659,4.17922 17.59375,5.375 0.1336,0.0356 0.21096,0.0589 0.34375,0.0937 l -11.96875,5.125 -0.90625,0.375 0.0312,0.0625 c -5.63771,2.38093 -10.67385,5.38695 -15.40625,8.6875 -11.54688,6.98935 -21.50132,16.49777 -28.875,28.65625 L 194.375,334.875 193.6875,336 152.375,403.0625 a 59.05856,59.05856 0 0 0 -48.78125,-33.34375 l -22.5625,-1.6875 a 59.05856,59.05856 0 0 0 -63.3125,54.53125 c -3.181353,43.08596 13.205126,81.64761 39.5,103.96875 25.072711,21.28369 54.0625,24.5625 54.0625,24.5625 a 59.05856,59.05856 0 0 0 1.25,0.0937 l 239.5,31.21875 A 59.05856,59.05856 0 0 0 418.21875,531.5 l 2.9375,-22.46875 A 59.05856,59.05856 0 0 0 370.1875,442.8125 l -24.90625,-3.25 77.625,-30.90625 -0.5,-1.25 c 9.62783,-6.30134 35.43419,-21.68118 33.125,-19.40625 -2.54814,2.51034 16.99891,-29.03423 21.625,-35.3125 l 0.59375,0.21875 45.3125,-126.84375 -0.28125,-0.0937 c -0.72037,-0.47707 5.02304,-43.47386 5.375,-39.6875 0.0148,0.15865 -0.31046,-0.78475 -0.34375,-0.78125 24.27512,-19.54122 40.03125,-49.38594 40.03125,-82.4375 0,-57.821477 -48.14728,-105.96875 -105.96875,-105.96875 z" />
  <path
     inkscape:connector-curvature="0"
     style="font-size:medium;font-style:normal;font-variant:normal;font-weight:normal;font-stretch:normal;text-indent:0;text-align:start;text-decoration:none;line-height:normal;letter-spacing:normal;word-spacing:normal;text-transform:none;direction:ltr;block-progression:tb;writing-mode:lr-tb;text-anchor:start;color:#000000;fill:#b01d1d;fill-opacity:1;fill-rule:nonzero;stroke:none;stroke-width:0.96049488;marker:none;visibility:visible;display:inline;overflow:visible;enable-background:accumulate;font-family:Bitstream Vera Sans;-inkscape-font-specification:Bitstream Vera Sans"
     d="m 403.0676,297.28094 c -5.78375,-1.44198 -12.04887,-0.8722 -17.47763,1.58949 l -123.66019,52.90595 c -6.56338,2.68153 -11.96233,8.09088 -14.63121,14.6594 -2.66888,6.56853 -2.5729,14.21054 0.26007,20.70996 2.83302,6.49944 8.3661,11.77148 14.99478,14.28732 6.62863,2.51584 14.26638,2.24267 20.69835,-0.74031 l 121.63841,-48.45809 c 10.2555,-4.29751 19.16219,-20.0001 18.31823,-31.08753 -0.84394,-11.08745 -9.35304,-21.17044 -20.14084,-23.86619 z"
     id="path3626"
     sodipodi:nodetypes="cccsssccscc" />
  <path
     inkscape:connector-curvature="0"
     style="font-size:medium;font-style:normal;font-variant:normal;font-weight:normal;font-stretch:normal;text-indent:0;text-align:start;text-decoration:none;line-height:normal;letter-spacing:normal;word-spacing:normal;text-transform:none;direction:ltr;block-progression:tb;writing-mode:lr-tb;text-anchor:start;color:#000000;fill:#b01d1d;fill-opacity:1;fill-rule:nonzero;stroke:none;stroke-width:0.96049488;marker:none;visibility:visible;display:inline;overflow:visible;enable-background:accumulate;font-family:Bitstream Vera Sans;-inkscape-font-specification:Bitstream Vera Sans"
     d="m 441.04243,162.44136 a 32.599984,32.599984 0 0 0 -35.00499,21.82314 l -45.30925,126.83938 a 32.599984,32.599984 0 1 0 61.38869,21.91532 l 45.30928,-126.8394 a 32.599984,32.599984 0 0 0 -26.38373,-43.73844 z"
     id="path3628" />
  <path
     inkscape:connector-curvature="0"
     style="font-size:medium;font-style:normal;font-variant:normal;font-weight:normal;font-stretch:normal;text-indent:0;text-align:start;text-decoration:none;line-height:normal;letter-spacing:normal;word-spacing:normal;text-transform:none;direction:ltr;block-progression:tb;writing-mode:lr-tb;text-anchor:start;color:#000000;fill:#b01d1d;fill-opacity:1;fill-rule:nonzero;stroke:none;stroke-width:0.96049488;marker:none;visibility:visible;display:inline;overflow:visible;enable-background:accumulate;font-family:Bitstream Vera Sans;-inkscape-font-specification:Bitstream Vera Sans"
     d="m 250.48873,214.96117 c -0.14432,5.77637 2.25492,11.57102 6.44047,15.55456 4.18554,3.98354 15.85385,5.66387 15.85385,5.66387 l 161.33948,-31.91459 c 0,0 15.1644,-17.58959 10.64724,-27.58646 -4.51714,-9.99689 -15.20494,-13.4759 -15.20494,-13.4759 L 270.3023,194.72763 c 0,0 -19.5621,9.84829 -19.81357,20.23354 z"
     id="path3630"
     sodipodi:nodetypes="csccsccc" />
  <path
     sodipodi:type="arc"
     style="color:#000000;fill:#b01d1d;fill-opacity:1;fill-rule:nonzero;stroke:none;stroke-width:0.4745613;marker:none;visibility:visible;display:inline;overflow:visible;enable-background:accumulate"
     id="path4032"
     sodipodi:cx="190"
     sodipodi:cy="103.75"
     sodipodi:rx="14.5"
     sodipodi:ry="14.5"
     d="m 204.5,103.75 a 14.5,14.5 0 1 1 -29,0 14.5,14.5 0 1 1 29,0 z"
     transform="matrix(3.2348111,0,0,3.2348111,-152.7428,-232.54783)" />
  <path
     inkscape:connector-curvature="0"
     style="font-size:medium;font-style:normal;font-variant:normal;font-weight:normal;font-stretch:normal;text-indent:0;text-align:start;text-decoration:none;line-height:normal;letter-spacing:normal;word-spacing:normal;text-transform:none;direction:ltr;block-progression:tb;writing-mode:lr-tb;text-anchor:start;color:#000000;fill:#b01d1d;fill-opacity:1;fill-rule:nonzero;stroke:none;stroke-width:0.96049488;marker:none;visibility:visible;display:inline;overflow:visible;enable-background:accumulate;font-family:Bitstream Vera Sans;-inkscape-font-specification:Bitstream Vera Sans"
     d="m 258.01139,354.46588 c -5.55544,2.16062 -10.34283,6.24192 -13.35528,11.38549 l -59.12691,95.97669 c -3.81214,5.97795 -5.09897,13.51147 -3.48732,20.41589 1.61165,6.90445 6.10071,13.08973 12.16544,16.76225 6.06479,3.67247 13.6261,4.78425 20.4913,3.01289 6.86521,-1.77132 12.94471,-6.40266 16.47555,-12.55092 l 59.12686,-95.9767 c 5.89455,-9.42861 5.02116,-22.59324 -2.06735,-31.16041 -7.08851,-8.56724 -19.85679,-11.8901 -30.22232,-7.86515 z"
     id="path3626-3"
     sodipodi:nodetypes="cccsssccscc" />
  <path
     style="font-size:medium;font-style:normal;font-variant:normal;font-weight:normal;font-stretch:normal;text-indent:0;text-align:start;text-decoration:none;line-height:normal;letter-spacing:normal;word-spacing:normal;text-transform:none;direction:ltr;block-progression:tb;writing-mode:lr-tb;text-anchor:start;baseline-shift:baseline;color:#000000;fill:#b01d1d;fill-opacity:1;fill-rule:nonzero;stroke:none;stroke-width:0.96049488;marker:none;visibility:visible;display:inline;overflow:visible;enable-background:accumulate;font-family:Sans;-inkscape-font-specification:Sans"
     d="m 76.618011,426.89661 c -2.011922,27.24803 7.733059,45.17093 18.829448,54.59041 11.096381,9.41948 23.474381,11.03795 23.474381,11.03795 l 0,-0.0498 240.73722,31.36576 2.94679,-22.47547 -240.83712,-31.31581 c 0,0 -5.67231,-0.73768 -11.68725,-5.84362 -6.01493,-5.10596 -12.489161,-13.92738 -10.888111,-35.61113 l -22.575358,-1.69815 z"
     id="path4052"
     inkscape:connector-curvature="0" />
  <path
     style="font-size:medium;font-style:normal;font-variant:normal;font-weight:normal;font-stretch:normal;text-indent:0;text-align:start;text-decoration:none;line-height:normal;letter-spacing:normal;word-spacing:normal;text-transform:none;direction:ltr;block-progression:tb;writing-mode:lr-tb;text-anchor:start;baseline-shift:baseline;color:#000000;fill:#b01d1d;fill-opacity:1;fill-rule:nonzero;stroke:none;stroke-width:0.96049488;marker:none;visibility:visible;display:inline;overflow:visible;enable-background:accumulate;font-family:Sans;-inkscape-font-specification:Sans"
     d="m 71.323784,204.13976 -0.09985,22.67525 195.686406,0.79912 0.0998,-22.67525 -195.686412,-0.79912 z"
     id="path4054"
     inkscape:connector-curvature="0" />
</svg>

<svg width="580" height="580" viewBox="0 0 580 580" fill="none" xmlns="http://www.w3.org/2000/svg">
<g clip-path="url(#clip0)">
<path opacity="0.426087" d="M461.875 -2.90625C404.054 -2.90625 355.906 45.241 355.906 103.062C355.906 107.91 356.377 112.655 357.031 117.344L258.844 136.781C253.543 137.836 248.411 139.613 243.594 142.062C243.594 142.062 240.681 143.315 236.469 145.75L71.5625 145.062C63.8061 145.029 56.1192 146.524 48.9405 149.462C41.7619 152.399 35.2323 156.722 29.7245 162.183C24.2167 167.645 19.8386 174.138 16.8403 181.291C13.842 188.445 12.2822 196.119 12.25 203.875L12.1562 226.562C12.1228 234.319 13.6176 242.006 16.5552 249.184C19.4929 256.363 23.8158 262.893 29.2772 268.401C34.7385 273.908 41.2313 278.286 48.3848 281.285C55.5383 284.283 63.2124 285.843 70.9688 285.875L233.625 286.531C241.559 290.779 246.732 290.71 251.219 291.906C251.352 291.942 251.43 291.965 251.562 292L239.594 297.125L238.688 297.5L238.719 297.562C233.081 299.943 228.045 302.949 223.312 306.25C211.766 313.239 201.811 322.748 194.437 334.906L194.375 334.875L193.688 336L152.375 403.062C147.888 393.71 141.018 385.705 132.454 379.851C123.891 373.998 113.937 370.503 103.594 369.719L81.0312 368.031C73.2928 367.451 65.5159 368.402 58.145 370.829C50.7741 373.256 43.9538 377.112 38.074 382.176C32.1941 387.24 27.37 393.414 23.8773 400.344C20.3846 407.273 18.2919 414.824 17.7187 422.562C14.5374 465.648 30.9239 504.21 57.2188 526.531C82.2915 547.815 111.281 551.094 111.281 551.094C111.698 551.129 112.114 551.161 112.531 551.187L352.031 582.406C367.558 584.428 383.253 580.202 395.664 570.656C408.076 561.11 416.188 547.026 418.219 531.5L421.156 509.031C422.162 501.336 421.64 493.518 419.622 486.024C417.604 478.531 414.129 471.508 409.396 465.359C404.662 459.209 398.763 454.052 392.035 450.183C385.308 446.315 377.884 443.81 370.188 442.812L345.281 439.562L422.906 408.656L422.406 407.406C432.034 401.105 457.84 385.725 455.531 388C452.983 390.51 472.53 358.966 477.156 352.688L477.75 352.906L523.062 226.062L522.781 225.969C522.061 225.492 527.804 182.495 528.156 186.281C528.171 186.44 527.846 185.497 527.812 185.5C552.088 165.959 567.844 136.114 567.844 103.063C567.844 45.2411 519.696 -2.9062 461.875 -2.9062V-2.90625Z" fill="#ACD8F3"/>
<path d="M403.068 297.281C397.284 295.839 391.019 296.409 385.59 298.87L261.93 351.776C255.366 354.458 249.967 359.867 247.299 366.436C244.63 373.004 244.726 380.646 247.559 387.146C250.392 393.645 255.925 398.917 262.553 401.433C269.182 403.949 276.82 403.676 283.252 400.693L404.89 352.235C415.146 347.937 424.052 332.235 423.208 321.147C422.364 310.06 413.855 299.977 403.068 297.281H403.068Z" fill="#B01D1D"/>
<path d="M441.042 162.441C433.586 161.485 426.029 163.135 419.649 167.112C413.27 171.089 408.461 177.149 406.037 184.264L360.728 311.104C359.176 315.16 358.449 319.486 358.592 323.827C358.734 328.168 359.743 332.436 361.558 336.382C363.373 340.328 365.958 343.871 369.162 346.804C372.366 349.736 376.123 351.999 380.214 353.46C384.304 354.92 388.645 355.548 392.982 355.307C397.318 355.066 401.563 353.961 405.467 352.057C409.37 350.153 412.854 347.488 415.713 344.219C418.573 340.949 420.75 337.142 422.117 333.019L467.426 206.18C469.144 201.578 469.801 196.648 469.346 191.758C468.891 186.867 467.338 182.143 464.801 177.937C462.264 173.731 458.809 170.153 454.695 167.47C450.581 164.786 445.914 163.068 441.042 162.441V162.441Z" fill="#B01D1D"/>
<path d="M250.489 214.961C250.344 220.738 252.744 226.532 256.929 230.516C261.115 234.499 272.783 236.18 272.783 236.18L434.123 204.265C434.123 204.265 449.287 186.675 444.77 176.679C440.253 166.682 429.565 163.203 429.565 163.203L270.302 194.728C270.302 194.728 250.74 204.576 250.489 214.961Z" fill="#B01D1D"/>
<path d="M508.776 103.064C508.776 115.504 503.834 127.434 495.038 136.231C486.242 145.027 474.311 149.969 461.871 149.969C449.431 149.969 437.501 145.027 428.705 136.231C419.908 127.434 414.967 115.504 414.967 103.064C414.967 90.6239 419.908 78.6935 428.705 69.8971C437.501 61.1008 449.431 56.1591 461.871 56.1591C474.311 56.1591 486.242 61.1008 495.038 69.8971C503.834 78.6935 508.776 90.6239 508.776 103.064V103.064Z" fill="#B01D1D"/>
<path d="M258.011 354.466C252.456 356.627 247.669 360.708 244.656 365.851L185.529 461.828C181.717 467.806 180.43 475.34 182.042 482.244C183.654 489.148 188.143 495.334 194.207 499.006C200.272 502.679 207.833 503.79 214.699 502.019C221.564 500.248 227.643 495.616 231.174 489.468L290.301 393.491C296.196 384.063 295.322 370.898 288.234 362.331C281.145 353.764 268.377 350.441 258.011 354.466L258.011 354.466Z" fill="#B01D1D"/>
<path d="M76.618 426.897C74.6061 454.145 84.3511 472.068 95.4475 481.487C106.544 490.907 118.922 492.525 118.922 492.525V492.475L359.659 523.841L362.606 501.365L121.769 470.05C121.769 470.05 116.096 469.312 110.081 464.206C104.067 459.1 97.5923 450.279 99.1934 428.595L76.618 426.897V426.897Z" fill="#B01D1D"/>
<path d="M71.3238 204.14L71.2239 226.815L266.91 227.614L267.01 204.939L71.3237 204.14H71.3238Z" fill="#B01D1D"/>
</g>
<defs>
<clipPath id="clip0">
<path d="M0 0H580V580H0V0Z" fill="white"/>
</clipPath>
</defs>
</svg>
